X:076 
T:Hare in the Corn (1)  
B:CRE3.019 (Giorria san Arbhar 1)
F:file ID: cre.3/076hare_c1
R:jig
Q:160
M:6/8
L:1/8
K:D
A|:FDF ABc|dAG FED|GBG FGA|BGE EAG|
FDF ABc|dAG FED|dfa gec|1 dAF DAG:|\
[2 dAF D2||
|:a| afd gec|dAG FED|GBG FGA|BGE E2a|
afd gec|dAG FED|dfa gec|dAF D2:|

%%%

